src/assets/images/features-icon-3.svg

<svg width="60" height="57" viewBox="0 0 60 57" fill="none" xmlns="http://www.w3.org/2000/svg">
<path d="M34.0497 1.56059C36.0935 1.94687 37.9835 2.71941 39.8405 3.64646C41.6095 4.52937 43.1479 5.73233 44.5873 7.06773C45.1477 7.58643 45.5873 8.19343 45.9389 8.87769C46.0268 9.04323 46.2685 9.20878 46.4663 9.24189C47.2465 9.36329 48.0376 9.38536 48.8068 9.53987C51.9934 10.2131 54.4657 11.8796 55.8612 14.9366C56.2128 15.6981 56.3227 16.5148 56.4106 17.3426C56.5205 18.3469 56.6963 19.3512 56.7073 20.3555C56.7183 21.437 56.3447 22.4524 55.7623 23.3684C55.4766 23.8209 55.0261 24.0858 54.5536 24.2955C53.5537 24.7148 52.5208 25.0349 51.433 25.0459C50.7077 25.0459 49.9825 24.9135 49.2683 24.77C48.5101 24.6155 47.7629 24.3948 47.0157 24.1741C46.741 24.0968 46.6311 24.1851 46.5982 24.4389C46.5762 24.6265 46.5652 24.8031 46.5652 24.9907C46.5762 29.3501 45.2027 33.2349 42.5655 36.6893C41.6425 37.8922 40.5876 38.9517 39.4229 39.9008C39.1482 40.1216 38.8405 40.2981 38.5219 40.4527C38.379 40.5189 38.1373 40.5299 38.0164 40.4527C37.9395 40.3975 37.9395 40.1326 37.9835 39.9891C38.2252 39.0621 38.4999 38.135 38.7526 37.208C39.1922 35.6077 39.368 33.9854 39.1922 32.3299C38.7856 28.6879 37.2692 25.6971 34.0827 23.7216C33.7091 23.4898 33.3135 23.258 32.9069 23.0815C32.4344 22.8718 32.1048 22.9711 31.7751 23.3684C31.5993 23.5781 31.4565 23.8209 31.3466 24.0747C31.2257 24.3506 31.5224 24.9025 31.907 25.1673C32.3246 25.4653 32.7641 25.7412 33.1487 26.0833C33.753 26.602 34.3574 27.1428 34.9068 27.7167C35.9506 28.7983 36.4561 30.1447 36.7198 31.5905C37.1703 34.1509 36.8846 36.623 35.6869 38.9517C35.5111 39.2938 35.2804 39.6139 35.0496 39.9339C34.7419 40.3644 34.3683 40.7065 33.808 40.9051C34.1376 41.1038 34.4453 41.3245 34.7969 41.4901C36.588 42.3178 38.379 43.1566 39.9284 44.3816C41.6645 45.7501 43.093 47.3724 43.8731 49.4914C44.2357 50.4957 44.3896 51.5331 44.3236 52.6037C44.2357 54.1046 43.3567 54.7778 42.0161 54.8109C40.3459 54.8551 38.8295 54.2812 37.489 53.2769C36.4561 52.5043 35.6979 51.478 34.9287 50.4626C33.8519 49.0389 32.6981 47.6925 31.0609 46.8648C29.7204 46.1805 28.2919 45.9156 26.8195 45.717C25.8635 45.5845 24.9185 45.3197 24.0065 45.0107C23.534 44.8562 23.0945 44.514 22.7319 44.1609C21.655 43.1014 21.6111 41.8212 22.5561 40.6403C22.9626 40.1436 23.4132 39.6801 23.7977 39.1724C24.1494 38.7089 24.457 38.2123 24.7867 37.7267C24.9735 37.4508 24.8746 37.2852 24.5889 37.1418C23.8417 36.7776 23.0396 36.6893 22.2374 36.5568C19.9299 36.1816 17.6224 35.8064 15.6225 34.482C15.0622 34.1068 14.5457 33.6322 14.0622 33.1576C13.5897 32.6941 13.4469 32.661 12.8206 32.8707C10.7878 33.5549 8.78791 33.4004 7.08474 32.0761C4.92008 30.3875 4.66735 27.9264 6.34854 25.7191C7.61218 24.0637 9.37028 23.5781 11.3701 23.9423C11.9855 24.0527 12.5678 24.3065 13.1502 24.5272C13.5348 24.6707 13.5897 24.6597 13.6996 24.2513C13.7985 23.8761 13.8864 23.4898 14.0073 23.1256C15.172 19.3953 17.5125 16.6583 20.9738 14.8704C22.8747 13.8882 24.8856 13.3805 27.0063 13.3805C28.8413 13.3805 30.5994 13.7889 32.3246 14.4179C33.9508 15.0029 35.621 15.4995 37.2912 15.9961C37.6538 16.1065 38.0604 16.1065 38.445 16.0844C39.2361 16.0292 39.7965 15.6099 40.1591 14.8925C40.6865 13.8882 41.2469 12.8949 41.7854 11.9016C41.7963 11.8796 41.8073 11.8575 41.8183 11.8465C42.2139 11.0739 42.2139 11.085 41.4777 10.6545C40.1591 9.88199 38.7636 9.28603 37.2472 9.01012C35.3902 8.67903 33.5223 8.65696 31.6433 8.81147C30.3357 8.9108 29.0061 9.0322 27.7095 8.95494C26.0723 8.85561 24.457 8.44727 23.0835 7.48711C21.5012 6.38347 21.4023 4.23139 22.7868 2.87392C23.567 2.11241 24.523 1.72614 25.5668 1.57163C26.8305 1.38401 28.0941 1.13018 29.3797 1.11914C29.5226 1.11914 32.9289 1.37298 34.0167 1.58267L34.0497 1.56059Z" fill="#FF3D72"/>
<path d="M35.0509 1.77909C35.0509 1.77909 30.6995 0.503849 26.4487 1.7679L35.0509 1.77909Z" fill="#FF3D72"/>
<path d="M54.09 19.6435C55.0352 19.6435 55.8015 18.8672 55.8015 17.9097C55.8015 16.9521 55.0352 16.1758 54.09 16.1758C53.1447 16.1758 52.3785 16.9521 52.3785 17.9097C52.3785 18.8672 53.1447 19.6435 54.09 19.6435Z" fill="#FF3D72"/>
<path d="M18.2603 8.9707H7.074C6.50562 8.9707 6.04486 9.43146 6.04486 9.99984C6.04486 10.5682 6.50562 11.029 7.074 11.029H18.2603C18.8287 11.029 19.2894 10.5682 19.2894 9.99984C19.2894 9.43146 18.8287 8.9707 18.2603 8.9707Z" fill="#FF3D72"/>
<path d="M13.1929 13.5469H5.19473C4.62635 13.5469 4.16559 14.0076 4.16559 14.576C4.16559 15.1444 4.62635 15.6052 5.19473 15.6052H13.1929C13.7613 15.6052 14.2221 15.1444 14.2221 14.576C14.2221 14.0076 13.7613 13.5469 13.1929 13.5469Z" fill="#FF3D72"/>
<path d="M10.553 18.0215H3.17001C2.60163 18.0215 2.14087 18.4822 2.14087 19.0506C2.14087 19.619 2.60163 20.0798 3.17001 20.0798H10.553C11.1213 20.0798 11.5821 19.619 11.5821 19.0506C11.5821 18.4822 11.1213 18.0215 10.553 18.0215Z" fill="#FF3D72"/>
</svg>

<svg xmlns="http://www.w3.org/2000/svg" width="60" height="57" fill="none"><path fill="#FF3D72" d="M34.05 1.56c2.044.387 3.934 1.16 5.79 2.086 1.77.883 3.308 2.086 4.747 3.422.56.518 1 1.125 1.352 1.81.088.165.33.33.527.364.78.121 1.572.143 2.34.298 3.187.673 5.66 2.34 7.055 5.397.352.761.462 1.578.55 2.406.11 1.004.285 2.008.296 3.012.011 1.082-.362 2.097-.945 3.013-.285.453-.736.718-1.208.928-1 .419-2.033.739-3.121.75-.725 0-1.45-.133-2.165-.276-.758-.154-1.505-.375-2.252-.596-.275-.077-.385.011-.418.265a4.642 4.642 0 0 0-.033.552c.011 4.36-1.362 8.244-4 11.698a19.28 19.28 0 0 1-3.142 3.212c-.275.22-.583.397-.901.552-.143.066-.385.077-.506 0-.076-.056-.076-.32-.032-.464.241-.927.516-1.854.769-2.781.44-1.6.615-3.223.44-4.878-.407-3.642-1.924-6.633-5.11-8.608a9.296 9.296 0 0 0-1.176-.64c-.473-.21-.802-.11-1.132.286-.176.21-.319.453-.428.707-.121.276.175.828.56 1.092.418.298.857.574 1.242.916.604.519 1.208 1.06 1.758 1.634 1.044 1.081 1.55 2.428 1.813 3.873.45 2.56.165 5.033-1.033 7.362-.176.342-.407.662-.637.982-.308.43-.682.773-1.242.971.33.199.637.42.989.585 1.791.828 3.582 1.667 5.131 2.892 1.736 1.368 3.165 2.99 3.945 5.11a7.682 7.682 0 0 1 .45 3.112c-.087 1.5-.966 2.174-2.307 2.207-1.67.044-3.186-.53-4.527-1.534-1.033-.773-1.791-1.799-2.56-2.814-1.077-1.424-2.23-2.77-3.868-3.598-1.34-.684-2.77-.95-4.241-1.148-.957-.133-1.901-.397-2.814-.706-.472-.155-.912-.497-1.274-.85-1.077-1.06-1.12-2.34-.176-3.52.407-.497.857-.96 1.242-1.469.351-.463.659-.96.989-1.445.187-.276.088-.442-.198-.585-.747-.364-1.55-.453-2.352-.585-2.307-.375-4.615-.75-6.614-2.075-.56-.375-1.077-.85-1.56-1.324-.473-.464-.616-.497-1.242-.287-2.033.684-4.033.53-5.736-.795-2.165-1.689-2.418-4.15-.736-6.357 1.263-1.655 3.021-2.14 5.021-1.777.616.11 1.198.364 1.78.585.385.144.44.133.55-.276.099-.375.186-.761.307-1.125 1.165-3.73 3.505-6.468 6.967-8.256 1.9-.982 3.912-1.49 6.032-1.49 1.835 0 3.593.409 5.319 1.038 1.626.585 3.296 1.082 4.966 1.578.363.11.77.11 1.154.088.791-.055 1.352-.474 1.714-1.191.528-1.005 1.088-1.998 1.626-2.991a.238.238 0 0 1 .033-.055c.396-.773.396-.762-.34-1.192-1.319-.773-2.714-1.369-4.23-1.645-1.858-.331-3.726-.353-5.605-.199-1.307.1-2.637.221-3.934.144-1.637-.1-3.252-.508-4.625-1.468-1.583-1.104-1.682-3.256-.297-4.613.78-.762 1.736-1.148 2.78-1.302 1.264-.188 2.527-.442 3.813-.453.143 0 3.549.254 4.637.464l.033-.022Z"/><path fill="#FF3D72" d="M35.05 1.78S30.7.503 26.45 1.767l8.602.011ZM54.09 19.643c.945 0 1.711-.776 1.711-1.733 0-.958-.766-1.734-1.711-1.734-.945 0-1.712.776-1.712 1.734 0 .957.767 1.733 1.712 1.733ZM18.26 8.97H7.074a1.03 1.03 0 1 0 0 2.059H18.26a1.03 1.03 0 0 0 0-2.058ZM13.193 13.547H5.195a1.03 1.03 0 1 0 0 2.058h7.998a1.03 1.03 0 0 0 0-2.058ZM10.553 18.021H3.17a1.03 1.03 0 1 0 0 2.059h7.383a1.03 1.03 0 0 0 0-2.058Z"/></svg>
